src/assets/outline/LikeDislike.svg

<?xml version="1.0" encoding="UTF-8"?>
<svg width="24" height="24" viewBox="0 0 24 24" xmlns="http://www.w3.org/2000/svg">
 <path d="m9.9498 22.75h-2.17c-0.39 0-1.17-0.12-1.62-0.56l-1.7-1.3099 0.91999-1.1901 1.77 1.3701c0.13 0.11 0.4 0.1899 0.63 0.1899h2.17c0.37002 0 0.79002-0.31 0.87002-0.63l1.39-4.2299c0.04-0.1 0.07-0.25 0-0.36-0.06-0.09-0.2-0.14-0.37-0.14h-2.29c-0.39 0-0.75-0.17-1.01-0.46-0.26-0.3-0.37-0.6801-0.31-1.0901l0.28999-1.84c0.04-0.17-0.07999-0.38-0.23999-0.43-0.13-0.05-0.35001 0.0401-0.40001 0.1101l-2.35 3.49-1.25-0.8401 2.34-3.49c0.44-0.66 1.4-0.9599 2.14-0.6799 0.85 0.28 1.41 1.24 1.21 2.12l-0.25 1.6h2.09c0.67 0 1.25 0.28 1.6 0.78 0.34 0.48 0.41 1.1099 0.19 1.7099l-1.37 4.1601c-0.2 0.94-1.22 1.7199-2.28 1.7199z"/>
 <path d="m3.7198 22.12h-0.56999c-1.56 0-1.89-1-1.89-1.84v-5.6c0-0.84 0.33-1.8401 1.89-1.8401h0.56999c1.56 0 1.89 1.0001 1.89 1.8401v5.6c0 0.84-0.33 1.84-1.89 1.84zm-0.93-1.5401c0.01 0 0.11 0.0401 0.35 0.0401h0.57c0.26 0 0.35001-0.0401 0.37001-0.0501 0-0.01 0.02999-0.0799 0.02999-0.2899v-5.6c0-0.21-0.03-0.29-0.04-0.3 0 0.02-0.1-0.0401-0.35-0.0401h-0.56999c-0.26 0-0.35001 0.0401-0.37001 0.0501 0 0.01-0.03 0.08-0.03 0.29v5.6c0 0.21 0.03 0.2899 0.04 0.2999z"/>
 <path d="m15.81 13.44c-0.2 0-0.4-0.0299-0.59-0.0999-0.85-0.28-1.41-1.24-1.21-2.12l0.25-1.6h-2.09c-0.67 0-1.25-0.28003-1.6-0.78003-0.34-0.48-0.41-1.11-0.19-1.71l1.37-4.16c0.23-0.94 1.26-1.72 2.31-1.72h2.17c0.39 0 1.17 0.12006 1.62 0.56006l1.7 1.3099-0.92 1.1901-1.77-1.3701c-0.13-0.11-0.4-0.18994-0.63-0.18994h-2.17c-0.37 0-0.79 0.31-0.87 0.63l-1.39 4.23c-0.04 0.1-0.07 0.24998 0 0.35998 0.06 0.09 0.2 0.14002 0.37 0.14002h2.29c0.39 0 0.75 0.16996 1.01 0.45996 0.26 0.3 0.37 0.68008 0.31 1.0901l-0.29 1.84c-0.04 0.17 0.08 0.3801 0.24 0.4301 0.14 0.05 0.35-0.0302 0.4-0.1102l2.35-3.4899 1.25 0.84008-2.34 3.49c-0.36 0.48-0.98 0.7799-1.58 0.7799z"/>
 <path d="m20.86 11.16h-0.57c-1.56 0-1.89-1.0001-1.89-1.8401v-5.6c0-0.84 0.33-1.84 1.89-1.84h0.57c1.56 0 1.89 0.99997 1.89 1.84v5.6c0 0.83998-0.33 1.8401-1.89 1.8401zm-0.93-1.54c0.01 0 0.11 0.04004 0.35 0.04004h0.57c0.26 0 0.35-0.04005 0.37-0.05005 0-0.01 0.03-0.08004 0.03-0.29004v-5.6c0-0.21-0.03-0.27993-0.04-0.29993 0.01 0.04-0.1-0.04004-0.35-0.04004h-0.57c-0.26 0-0.35 0.04005-0.37 0.05005 0 0.01-0.03 0.07992-0.03 0.28992v5.6c0 0.21 0.03 0.28005 0.04 0.30005z"/>
</svg>

<svg width="24" height="24" viewBox="0 0 24 24"  xmlns="http://www.w3.org/2000/svg">
<path d="M9.94978 22.7503H7.77979C7.38979 22.7503 6.60979 22.6303 6.15979 22.1903L4.45979 20.8804L5.37978 19.6903L7.14979 21.0604C7.27979 21.1704 7.54979 21.2503 7.77979 21.2503H9.94978C10.3198 21.2503 10.7398 20.9403 10.8198 20.6203L12.2098 16.3904C12.2498 16.2904 12.2798 16.1404 12.2098 16.0304C12.1498 15.9404 12.0098 15.8904 11.8398 15.8904H9.54979C9.15979 15.8904 8.79979 15.7204 8.53979 15.4304C8.27979 15.1304 8.16979 14.7503 8.22979 14.3403L8.51978 12.5003C8.55978 12.3303 8.43979 12.1203 8.27979 12.0703C8.14979 12.0203 7.92978 12.1104 7.87978 12.1804L5.52979 15.6704L4.27979 14.8303L6.61979 11.3403C7.05979 10.6803 8.01979 10.3804 8.75979 10.6604C9.60979 10.9404 10.1698 11.9004 9.96979 12.7804L9.71979 14.3804H11.8098C12.4798 14.3804 13.0598 14.6604 13.4098 15.1604C13.7498 15.6404 13.8198 16.2703 13.5998 16.8703L12.2298 21.0304C12.0298 21.9704 11.0098 22.7503 9.94978 22.7503Z" />
<path d="M3.71976 22.1199H3.14977C1.58977 22.1199 1.25977 21.1199 1.25977 20.2799V14.6799C1.25977 13.8399 1.58977 12.8398 3.14977 12.8398H3.71976C5.27976 12.8398 5.60976 13.8399 5.60976 14.6799V20.2799C5.60976 21.1199 5.27976 22.1199 3.71976 22.1199ZM2.78976 20.5798C2.79976 20.5798 2.89976 20.6199 3.13976 20.6199H3.70976C3.96976 20.6199 4.05977 20.5798 4.07977 20.5698C4.07977 20.5598 4.10976 20.4899 4.10976 20.2799V14.6799C4.10976 14.4699 4.07976 14.3899 4.06976 14.3799C4.06976 14.3999 3.96976 14.3398 3.71976 14.3398H3.14977C2.88977 14.3398 2.79976 14.3799 2.77976 14.3899C2.77976 14.3999 2.74976 14.4699 2.74976 14.6799V20.2799C2.74976 20.4899 2.77976 20.5698 2.78976 20.5798Z" />
<path d="M15.8102 13.4399C15.6102 13.4399 15.4102 13.41 15.2202 13.34C14.3702 13.06 13.8102 12.1 14.0102 11.22L14.2602 9.62H12.1702C11.5002 9.62 10.9202 9.33997 10.5702 8.83997C10.2302 8.35997 10.1602 7.73 10.3802 7.13L11.7502 2.96997C11.9802 2.02997 13.0102 1.25 14.0602 1.25H16.2302C16.6202 1.25 17.4002 1.37006 17.8502 1.81006L19.5502 3.12L18.6302 4.31006L16.8602 2.93994C16.7302 2.82994 16.4602 2.75 16.2302 2.75H14.0602C13.6902 2.75 13.2702 3.06 13.1902 3.38L11.8002 7.60999C11.7602 7.70999 11.7302 7.85997 11.8002 7.96997C11.8602 8.05997 12.0002 8.10999 12.1702 8.10999H14.4602C14.8502 8.10999 15.2102 8.27995 15.4702 8.56995C15.7302 8.86995 15.8402 9.25003 15.7802 9.66003L15.4902 11.5C15.4502 11.67 15.5702 11.8801 15.7302 11.9301C15.8702 11.9801 16.0802 11.8999 16.1302 11.8199L18.4802 8.32996L19.7302 9.17004L17.3902 12.66C17.0302 13.14 16.4102 13.4399 15.8102 13.4399Z" />
<path d="M20.8599 11.1599H20.2899C18.7299 11.1599 18.3999 10.1598 18.3999 9.31982V3.71985C18.3999 2.87985 18.7299 1.87988 20.2899 1.87988H20.8599C22.4199 1.87988 22.7499 2.87985 22.7499 3.71985V9.31982C22.7499 10.1598 22.4199 11.1599 20.8599 11.1599ZM19.9299 9.61987C19.9399 9.61987 20.0399 9.65991 20.2799 9.65991H20.8499C21.1099 9.65991 21.1999 9.61986 21.2199 9.60986C21.2199 9.59986 21.2499 9.52982 21.2499 9.31982V3.71985C21.2499 3.50985 21.2199 3.43992 21.2099 3.41992C21.2199 3.45992 21.1099 3.37988 20.8599 3.37988H20.2899C20.0299 3.37988 19.9399 3.41993 19.9199 3.42993C19.9199 3.43993 19.8899 3.50985 19.8899 3.71985V9.31982C19.8899 9.52982 19.9199 9.59987 19.9299 9.61987Z" />
</svg>
